build/img/filter.svg

<svg width="64" height="64" viewBox="0 0 64 64" fill="none" xmlns="http://www.w3.org/2000/svg">
<path d="M31 44H58M48.2581 32.0571H57.996M6 44H23M6.00409 32.0571H40.7218M6 20H16.5M24 20H58" stroke="black" stroke-width="2" stroke-miterlimit="10" stroke-linejoin="bevel"/>
<circle cx="27" cy="44" r="4" stroke="black" stroke-width="2"/>
<circle cx="20" cy="20" r="4" stroke="black" stroke-width="2"/>
<circle cx="44" cy="32" r="4" stroke="black" stroke-width="2"/>
</svg>

<svg width="64" height="64" viewBox="0 0 64 64" fill="none" xmlns="http://www.w3.org/2000/svg"><path d="M31 44h27m-9.742-11.943h9.738M6 44h17M6.004 32.057h34.718M6 20h10.5m7.5 0h34" stroke="#000" stroke-width="2" stroke-miterlimit="10" stroke-linejoin="bevel"/><circle cx="27" cy="44" r="4" stroke="#000" stroke-width="2"/><circle cx="20" cy="20" r="4" stroke="#000" stroke-width="2"/><circle cx="44" cy="32" r="4" stroke="#000" stroke-width="2"/></svg>
